X:1
T:Title
%%score { ( 1 3 ) | ( 2 4 5 ) }
L:1/8
M:4/4
K:Ab
V:1 treble nm="Grand Piano"
V:3 treble 
V:2 bass 
V:4 bass 
V:5 bass 
V:1
 z4 z2[Q:1/4=100] E2 | [Ec]>[Ec] [Ec]>[CA] [DB]2 [DG]2 | [CA]>[CA] [EG]>[DF] [CE]3 [CE] | %3
 F>F F>G [=DA]2 [DB]>[Dc] | B6 z2 | [Ec]>[Ec] [Ec]>[CA] [DB]2 [DG]2 | %6
 [CA]>[CA] [EG]>[DF] [CE]3 [CE] | E>E E>E E>F G>B |[M:3/4] [CA]6 |[M:1/4] [CA]2 | %10
[M:4/4] B2 B>B B>B e>d | c2- [Ec-]>[Gc-] [Ac]2 [Ac]2 | [A=d]2 [Ad]>[Ad] [Ad]>[AB] [Ac]>[Ad] | %13
[M:39/32] G/4-G/4-G/4-G/4-G/-<G/ z/4 z/4 z/4 z/4 z/4 z/4 z/4 z/4 z/4 z/4 z/4 z/4 z/4 z/4 z/4 z/4 z/4 z/4 z/ e/4-e/4-e/4-e/4-e/4-e/4-e/-<e/ z/4 | %14
[M:4/4] z4 B2- B/4 z/4 z/ z | z4 A2- A/4 z/4 z/ z | (9:8:8E2 E2 E/ E3/2F/G/-G3/2B/ | %17
[M:3/4] (3[A,CA-]3 [DA-]3 [CA]3 |] %18
V:2
 z4 z2 E,2 | [A,,A,]>[A,,A,] [A,,A,]>[A,,A,] [E,G,]2 [E,B,]2 | %2
 [A,,A,]>[A,,A,] [A,,A,]>[A,,A,] [A,,A,]3 [A,,A,] | %3
 [D,A,D]>[D,A,D] [D,A,D]>[D,A,D] [B,,B,]2 [B,,A,]>[B,,A,] | [E,G,E]2 [F,A,]2 [G,B,]2 [E,G,]2 | %5
 [A,,A,]>[A,,A,] [A,,A,]>[A,,A,] [E,G,]2 [E,B,]2 | %6
 [A,,A,]>[A,,A,] [A,,A,]>[A,,A,] [A,,A,]3 [A,,A,] | %7
 [E,A,C]>[E,A,C] [E,A,C]>[E,A,C] [E,G,D]>[E,A,D] [E,B,D]>[E,G,D] |[M:3/4] [A,,A,]6 | %9
[M:1/4] [A,,E,]2 |[M:4/4] [E,G,E]2 [F,A,=D]>[F,A,D] [G,B,E]>[F,A,E] [E,G,E]>[E,B,E] | %11
 [A,,A,]6 [A,,A,]2 | [B,,F,]2 [B,,F,]>[B,,F,] [B,,F,]>[B,,F,] [B,,B,]>[B,,B,] | %13
[M:39/32] [E,B,]/4-[E,B,]/4-[E,B,]/4-[E,B,]/4-[E,B,]/-<[E,B,]/[E,B,]/4-[E,B,]/4-[E,B,]/-<[E,B,]/[F,A,]/[G,B,]/4-[G,B,]/4-[G,B,]/4-[G,B,]/4-[G,B,]/4-[G,B,]/4-[G,B,]/4-[G,B,]/4-[G,B,]/-<[G,B,]/[E,G,E]/4-[E,G,E]/4-[E,G,E]/4-[E,G,E]/4-[E,G,E]/-<[E,G,E]/[E,G,E]3/4 | %14
[M:4/4] z4 [E,G,D]2- [E,G,D]/4 z/4 z/ z | z4 [=D,A,_C]2- [D,A,C]/4 z/4 z/ z | %16
 (9:8:8[E,A,C]2 [E,A,C]2 [E,A,C]/ [E,G,D]3/2[E,A,D]/[E,B,D]/-[E,B,D]3/2[E,G,D]/ | %17
[M:3/4] z2 z z/ F,/- F,/4 z/4 z/ z |] %18
V:3
 x8 | x8 | x8 | x8 | z2 =D2 _D2 [DE]2 | x8 | x8 | x8 |[M:3/4] x6 |[M:1/4] x2 |[M:4/4] x8 | %11
 A2 z2 z4 | x8 | %13
[M:39/32] e/4-e/4-e/4-e/4-e/-<e/-[Ge]/4-[Ge]/4-[Ge]/-<[Ge-]/[Fe-]/[Ee]/4-[Ee]/4-[Ee]/4-[Ee]/4-[Ee]/4-[Ee]/4-[Ee]/4-[Ee]/4-[Ee]/-<[Ee]/ z/4 z/4 z/4 z/4 z/4 z/4 z/ d3/4 | %14
[M:4/4] (5:4:5[Ec]2 [Ec]/ [Ec]/-[Ec]3/2[Fd]/ z2 (3:2:2c2 B | %15
 (5:4:5[CA]2 [CA]/ A/-A3/2F/ z2 (3:2:2G2 F | x481/60 |[M:3/4] z2 z z/ D/- D/4 z/4 z/ z |] %18
V:4
 x8 | x8 | x8 | x8 | x8 | x8 | x8 | x8 |[M:3/4] x6 |[M:1/4] x2 |[M:4/4] x8 | x8 | x8 | %13
[M:39/32] x39/4 | %14
[M:4/4] (5:4:5[A,,A,]2 [A,,A,]/ [A,,A,]/-[A,,A,]3/2[A,,A,]/ z2 (3:2:2[E,G,E]2 [E,G,D] | %15
 (5:4:5[A,,A,]2 [A,,A,]/ [D,F,D]/-[D,F,D]3/2[D,A,D]/ z2 (3:2:2[=D,A,_C]2 [D,A,C] | x481/60 | %17
[M:3/4] (3z3 F,3 E,3 |] %18
V:5
 x8 | x8 | x8 | x8 | x8 | x8 | x8 | x8 |[M:3/4] x6 |[M:1/4] x2 |[M:4/4] x8 | x8 | x8 | %13
[M:39/32] x39/4 |[M:4/4] x8 | x8 | x481/60 |[M:3/4] A,,6 |] %18

